assets/awsdynamodbtable/original.svg

<svg height="48" viewBox="0 0 48 48" width="48" xmlns="http://www.w3.org/2000/svg"><path d="m13.355 11.862h32.573v-9.862h-32.573zm2-2h28.572v-5.861h-28.572zm-13.355 2h9.861v-9.862h-9.861zm2-2h5.862v-5.861h-5.862zm9.355 13.355h32.573v-9.861h-32.573zm2-2h28.572v-5.861h-28.572zm-13.355 2h9.861v-9.861h-9.861zm2-2h5.862v-5.861h-5.862zm9.355 13.355h32.573v-9.861h-32.573zm2-2h28.572v-5.862h-28.572zm-13.355 2h9.861v-9.861h-9.861zm2-2h5.862v-5.862h-5.862zm9.355 13.355h32.573v-9.861h-32.573zm2-1.999h28.572v-5.862h-28.572zm-13.355 1.999h9.861v-9.861h-9.861zm2-1.999h5.862v-5.862h-5.862z" fill="#c925d1" fill-rule="evenodd"/></svg>

<svg xmlns="http://www.w3.org/2000/svg" width="48" height="48" viewBox="0 0 48 48"><path fill="#c925d1" fill-rule="evenodd" d="M13.355 11.862h32.573V2H13.355zm2-2h28.572V4.001H15.355zM2 11.862h9.861V2H2zm2-2h5.862V4.001H4zm9.355 13.355h32.573v-9.861H13.355zm2-2h28.572v-5.861H15.355zM2 23.217h9.861v-9.861H2zm2-2h5.862v-5.861H4zm9.355 13.355h32.573v-9.861H13.355zm2-2h28.572V26.71H15.355zM2 34.572h9.861v-9.861H2zm2-2h5.862V26.71H4zm9.355 13.355h32.573v-9.861H13.355zm2-1.999h28.572v-5.862H15.355zM2 45.927h9.861v-9.861H2zm2-1.999h5.862v-5.862H4z"/></svg>
